svg/furkot/freepik/bridge.svg

<svg viewBox="0 0 512 512" xmlns="http://www.w3.org/2000/svg"><path d="m453.107 185.399c9.55-3.856 19.242-7.347 29.044-10.619 0 0-2.329-.019-6.701-.05-.455 0-.519.004-.394.004-8.469.011-16.924.261-25.358.725l-44.551-129.978-3.016-8.801-4.399 8.224-85.7 160.329c-10.887 4.185-21.629 8.761-32.207 13.685l-64.226-171.978-3.727-9.977-3.809 9.939-120.652 314.907c-8.771 9.333-17.332 18.862-25.621 28.632-12.429 14.643-24.319 29.748-35.558 45.326-9.226 12.784-18.15 25.866-26.077 39.502l-.155.327h96.735l21.106-40.209 27.865.024c-8.654 17.038-14.825 31.236-18.494 40.185h106.483c7.389-39.449 19.66-78.251 36.97-114.484 5.709-11.95 11.99-23.637 18.835-34.98l32.075 108.948h38.98l-51.576-138.103c9.183-12.423 19.158-24.255 29.961-35.332 26.876-27.551 58.515-50.239 93.162-66.994.452-.218.91-.424 1.363-.642l40.304 164.012h38.507zm-319.048 130.941 77.696-254.306 48.946 166.264c-4.232 2.182-8.439 4.417-12.613 6.709-35.663 19.614-69.194 43.075-100.261 69.348-4.647 3.93-9.225 7.939-13.768 11.985zm39.427 70.302-26.296-.006s23.35-31.497 35.395-46.236l24.12.09c-11.491 14.062-22.668 29.591-33.219 46.152zm73.075-88.112-24.717.136 48.972-36.823 4.006 14.427c-9.58 6.603-19.034 14.028-28.261 22.26zm65.412-49.216-12.36-5.364 45.663-27.056 12.694 1.178c-20.466 11.437-45.997 31.242-45.997 31.242zm68.256-44.375-9.008-1.552s23.876-11.755 51.243-19.555l2.586.506c-22.238 7.499-44.821 20.601-44.821 20.601zm-18.186-15.876c-5.72 1.502-11.408 3.129-17.066 4.847l55.398-134.551 28.919 117.678c-22.659 2.263-45.126 6.219-67.251 12.026z"/></svg>

<svg xmlns="http://www.w3.org/2000/svg" viewBox="0 0 512 512"><path d="M453.107 185.399C462.657 181.543 472.349 178.052 482.151 174.78 482.151 174.78 479.822 174.761 475.45 174.73 474.995 174.73 474.931 174.734 475.056 174.734 466.587 174.745 458.132 174.995 449.698 175.459L405.147 45.481 402.131 36.68 397.732 44.904 312.032 205.233C301.145 209.418 290.403 213.994 279.825 218.918L215.599 46.94 211.872 36.963 208.063 46.902 87.411 361.809C78.64 371.142 70.079 380.671 61.79 390.441 49.361 405.084 37.471 420.189 26.232 435.767 17.006 448.551 8.082 461.633 0.155 475.269L0 475.596H96.735L117.841 435.387 145.706 435.411C137.052 452.449 130.881 466.647 127.212 475.596H233.695C241.084 436.147 253.355 397.345 270.665 361.112 276.374 349.162 282.655 337.475 289.5 326.132L321.575 435.08H360.555L308.979 296.977C318.162 284.554 328.137 272.722 338.94 261.645 365.816 234.094 397.455 211.406 432.102 194.651 432.554 194.433 433.012 194.227 433.465 194.009L473.769 358.021H512.276L453.107 185.399ZM134.059 316.34L211.755 62.034 260.701 228.298C256.469 230.48 252.262 232.715 248.088 235.007 212.425 254.621 178.894 278.082 147.827 304.355 143.18 308.285 138.602 312.294 134.059 316.34ZM173.486 386.642L147.19 386.636C147.19 386.636 170.54 355.139 182.585 340.4L206.705 340.49C195.214 354.552 184.037 370.081 173.486 386.642ZM246.561 298.53L221.844 298.666 270.816 261.843 274.822 276.27C265.242 282.873 255.788 290.298 246.561 298.53ZM311.973 249.314L299.613 243.95 345.276 216.894 357.97 218.072C337.504 229.509 311.973 249.314 311.973 249.314ZM380.229 204.939L371.221 203.387C371.221 203.387 395.097 191.632 422.464 183.832L425.05 184.338C402.812 191.837 380.229 204.939 380.229 204.939ZM362.043 189.063C356.323 190.565 350.635 192.192 344.977 193.91L400.375 59.359 429.294 177.037C406.635 179.3 384.168 183.256 362.043 189.063Z"/></svg>
